X:1
T:Domine, pater
T:Domine, pater
T:François de Layolle
T:Source : Trium vocum cantiones---Nürnberg---J.Petreius---1541. Editor : André Vierendeels (16/04/16).
T:Notes : Original clefs : C3, C4, F3 Editorial accidentals above the staff Original note values have been halved 
T:©
T:©
T:©
T:©
T:©
T:©
C:François de Layolle
Z:©
%%score [ 1 2 3 ]
L:1/8
Q:1/4=120
M:2/2
K:F
V:1 treble-8 nm="Tenor" snm="T 1"
V:2 treble-8 nm="Tenor" snm="T"
V:3 treble-8 nm="Tenor" snm="T"
V:1
 d4 d2 d2 | e4 c4 | z4 z2 f2 | e2 c2 g3 f | ed d4 c2 | d4 z2 d2 | B2 c3 B G2 | z2 g4 f2 | %8
w: Do- mi- ne,|pa- ter,|Do-|mi- ne, pa- *||ter, Do-|mi- ne, _ _|et _|
 g4 z2 g2 |"^b" f4 e4 | d4 z2 d2 | f3 e d2 c2 | B2 G2 A4 | G2 d2 e2 g2- | g2 fe fedc | B8 | %16
w: _ De-||us vi-|tae _ _ me-||ae, vi- tae me-||ae,|
 z4 z2 G2 | B2 B2 A2 A2 | G4 z2 A2 | B2 B2 c4 | d4 z2 f2 | g3 f ed e2 | d6 c2 | B2 A2 B4 | %24
w: ne|de- re- lin- quas|me in|co- gi- ta-|tu ma-|li- * * * *|gno, ex-|tol- * *|
 A3 F B2 A2- | A2 GF G4 | AF f3 g a2- | ag g4 f2 | g3 e fedc | B4 c4 | d6 c2 | d2 e2 fedc | %32
w: * * * len-|* * * ti-|am _ o- cu- lo-||rum _ _ _ _ _|me- o-|rum ne|de- * de- * * *|
 B2 b3 a a2- | ag g4 f2 | g2 d2 d2 d2 | d4 d4 | e2 f2 g4 | f2 c2 c2 c2 | d4 d4 | B2 c2 A4 | %40
w: ris mi- * *||hi, et de- si-|de- ri-|um ma- li-|gnum, et de- si-|de- ri-|um ma- li-|
 G2 g4 d2 | f4 z2 e2- | ed c2 d2 f2 | e2 d4 c2 | B3 c A4 | GABc de f2 | e2 d2 g4 | f4 z2 f2 | %48
w: gnum a- ver-|te à|_ _ _ me, Do-|* mi- ne,|Do- * *|mi- * * * * * ne,|au- fer à|me con-|
 f4 e2 d2- | d2 c2 d2 z d | e2 f2 g2 e2 | d4 z2 c2 | e3 f g4 | z2 d2 f3 e | d3 c BA B2 | A2 B4 AG | %56
w: cu- pi- scen-|* ti- am, con-|cu- pi- scen- ti-|am et|a- ni- mum|ir- re- ve-|ren- * * * *||
 F6 G2 | A2 B2 A4 | G2 g2 g2 g2 | f4 d4 | d4 c4 | d8 | B6 c2 |"^b" d2 B2 e3 d | d8 |] %65
w: tem et|in fre- mi-|tu ne tra- das|me, ne|tra- das|me,|ne _|_ _ tra- das|me.|
V:2
 z4 G4 | G2 G2 A4 | F8 | z8 | z2 B2 B2 G2 | B4 A4 | z4 z2 G2 | B2 c2 A4 | G4 z2 G2 | B4 c4 | %10
w: Do-|mi- ne, pa-|ter,||Do- mi- ne,|pa- ter,|Do-|mi- ne, pa-|ter, et|De- *|
 G4 B4 | A2 B3 G A2- | AG G4 F2 | B4 c4 | A8 | G4 z2 G2 | B2 B2 c2 c2 | d4 z2 d2 | e2 d2 c2 A2 | %19
w: us vi-|tae me- * *||ae, me-||ae, ne|de- re- lin- quas|me, ne|de- re- lin- quas|
 G4 z2 G2 | B2 A2 B2 A2 | G4 c4 | B4 z2 A2 | G2 F2 G4 | F3 D G2 F2- | F2 ED E4 | D8 | z2 d4 c2 | %28
w: me in|co- gi- ta- tu|ma- li-|gno, ex-|tol- len- *||* * * ti-|am|o- cu-|
 B3 A/G/ A4 | G4 z2 A2 | B4 G4 | z8 | G6 A2 | B2 c2 A4 | G2 B2 B2 B2 | G6 A2 | BA d4 c2 | %37
w: lo- * * *|rum me-|o- rum||ne de-|de- ris mi-|hi, et de- si-|de- ri-|um _ ma- li-|
 d2 A2 A2 A2 | B4 B2 A2- |"^#" A2 G4 F2 | G4 z2 d2- | d2 A2 c4 | z2 G2 B2 A2 | G2 B2 A4 | %44
w: gnum, et de- si-|de- ri- um|_ ma- li-|gnum a-|* ver- te|à me, Do-|* mi- ne,|
 z2 G4 F2 | G4 z4 | z2 d4 c2 | d4 B4 | A4 z4 | z2 G2 A2 B2 | c2 A2 G4 | z2 G2 A3 B | c4 z2 G2 | %53
w: Do- mi-|ne,|au- *|fer à|me|con- cu- pi-|scen- ti- am,|et a- ni-|mum, et|
 B3 c d2 A2 | B3 A GF G2 | F4 G4 | A3 G AF B2 | A2 G4 F2 | B3 G B2 c2 | d4 z2 B2 | G2 B3 A G2- | %61
w: a- ni- mum ir-|re- ve- ren- * *|tem, et|in- * * * fre-|mi- tu ne|tra- * * das|me, ne|tra- * * *|
 G2 FE F4 | G6 A2 | B2 G2 c4 |"^-natural" B8 |] %65
w: * * * das|me, ne|tra- * das|me.|
V:3
 z8 | C4 C2 C2 | D4 B,4 | C3 D EF G2- |"^b""^b" GFED E4 | D4 z2 D2 |"^b" G2 C2 E4 | D8 | %8
w: |Do- mi- ne,|pa- ter,|Do- * mi- * ne,|_ _ _ _ pa-|ter, Do-|mi- ne, pa-|ter,|
 d4 c2 e2- | ed d4 c2 | B3 A GF G2 | D8 | D8 | z8 | z4 D4 | _E6 E2 | _E4 E4 | D8 | z2 G4 F2 | %19
w: et De- *|* * * us|vi- * * * tae|me-|ae,||ne|de- re-|lin- quas|me|in co-|
 G4 E4 | D8 | z4 C4 | G4 D4 | d8 | d8 | c4 c4 | d6 c2 | B3 A/G/ A4 | G4 z2 D2 | GFED C4 | G6 A2 | %31
w: gi- ta-|tu|ma-|li- gno,|ex-|tol-|len- ti-|am o-|cu- * * lo-|rum me-|o- * * * rum,|ne de-|
 B2 c2 A4 | G4 z4 | z8 | z2 G2 G2 G2 | B6 A2 | G2 F2 E4 | D2 F2 F2 F2 | D2 G3 F D2 | G2 C2 D4 | %40
w: de- ris mi-|hi,||et de- si-|de- ri-|um ma- li-|gnum, et de- si-|de- * ri- um|ma- li- *|
 G8 | z2 F4 C2 | E4 D4 | G4 F4 | G4 D4 | z2 G4 F2 | G4 E4 | D8 | z2 D2 E2 F2 | G2 E2 D4 | %50
w: gnum|a- ver-|te à|me, Do-|mi- num,|au- *|fer à|me|con- cu- pi-|scen- ti- am,|
 z2 D2 E3 F | G4 z4 | z2 C2 E3 F | G2 G2 z4 | G4 G4 |"^b" D4 E4 | D8- | D8 |"^b""^b" G4 E2 E2 | %59
w: et a- ni-|mum,|ir- re- ve-|ren- tem|et in|fre- mi-|tu|_|ne tra- das|
 D2 B3 A G2- |"^b""^b" GFED E4 | D8 | z4 G4 | G4 C4 | G8 |] %65
w: ma, ne- * tra-|* * * * das|me,|ne|tra- das|me.|

